Numix-Light/16x16/status/weather-clouds-night.svg

<svg xmlns="http://www.w3.org/2000/svg" height="16" width="16">
 <g>
  <path d="m7 3c-1.551 0.2603-2.9614 1.1824-3.875 2.4687-0.9135 1.2864-1.2902 2.9412-1.0312 4.5 0.0794 0.4783 0.2142 0.9303 0.4062 1.3753 0.0431-0.029 0.081-0.066 0.125-0.094 1e-7 -0.72638 0.40008-1.3456 0.90625-1.7188 0.50617-0.37318 1.1438-0.5625 1.8125-0.5625 0.29324 0 0.5378 0.14388 0.8125 0.21875 0.31215-0.2977 0.67728-0.54564 1.0625-0.75-0.16015-0.12402-0.29151-0.23836-0.375-0.3125-1.1783-1.0465 1.7073-5.3852 0.1562-5.1249zm2 6c-1.1263 0-2.0808 0.51564-2.5938 1.2813-0.2888-0.18-0.6576-0.281-1.0624-0.281-0.92 0-1.6875 0.56-1.6876 1.25 0 0.15496 0.056173 0.30052 0.125 0.4375-1.0463 0.35-1.7812 1.144-1.7812 2.062 0 1.246 1.338 2.25 3 2.25h6c1.662 0 3-1.0035 3-2.25 0-0.98734-0.85624-1.8205-2.0312-2.125 0.002-0.043 0.031-0.082 0.031-0.125 0-1.38-1.344-2.5-3-2.5z" opacity="0.3"/>
  <path d="m7 2c-1.551 0.26033-2.9614 1.1824-3.875 2.4688-0.91349 1.2864-1.2902 2.9411-1.0312 4.5 0.0794 0.4781 0.2142 0.9306 0.4062 1.3752 0.0431-0.029 0.081-0.066 0.125-0.094 1e-7 -0.72638 0.40008-1.3456 0.90625-1.7188 0.50617-0.37318 1.1438-0.5625 1.8125-0.5625 0.29324 0 0.5378 0.14388 0.8125 0.21875 0.31215-0.2977 0.67728-0.54564 1.0625-0.75-0.16015-0.12402-0.29151-0.23836-0.375-0.3125-1.1783-1.0465 1.7073-5.3852 0.1562-5.1249zm2 6c-1.1263 0-2.0808 0.51564-2.5938 1.2812-0.28885-0.1802-0.6577-0.28125-1.0625-0.28125-0.92 0-1.6875 0.56-1.6875 1.25 0 0.15496 0.056173 0.30052 0.125 0.4375-1.0463 0.35-1.7812 1.144-1.7812 2.062 0 1.246 1.338 2.25 3 2.25h6c1.662 0 3-1.0035 3-2.25 0-0.98734-0.85624-1.8205-2.0312-2.125 0.002-0.043 0.031-0.082 0.031-0.125 0-1.38-1.344-2.5-3-2.5z" fill="#353535"/>
 </g>
</svg>

<?xml version="1.0" encoding="UTF-8" standalone="no"?>
<svg
   xmlns:dc="http://purl.org/dc/elements/1.1/"
   xmlns:cc="http://creativecommons.org/ns#"
   xmlns:rdf="http://www.w3.org/1999/02/22-rdf-syntax-ns#"
   xmlns:svg="http://www.w3.org/2000/svg"
   xmlns="http://www.w3.org/2000/svg"
   xmlns:sodipodi="http://sodipodi.sourceforge.net/DTD/sodipodi-0.dtd"
   xmlns:inkscape="http://www.inkscape.org/namespaces/inkscape"
   height="16"
   width="16"
   id="svg2993"
   version="1.1"
   inkscape:version="0.48.5 r10040"
   sodipodi:docname="weather-clouds-night.svg">
  <metadata
     id="metadata3005">
    <rdf:RDF>
      <cc:Work
         rdf:about="">
        <dc:format>image/svg+xml</dc:format>
        <dc:type
           rdf:resource="http://purl.org/dc/dcmitype/StillImage" />
      </cc:Work>
    </rdf:RDF>
  </metadata>
  <defs
     id="defs3003" />
  <sodipodi:namedview
     pagecolor="#ffffff"
     bordercolor="#666666"
     borderopacity="1"
     objecttolerance="10"
     gridtolerance="10"
     guidetolerance="10"
     inkscape:pageopacity="0"
     inkscape:pageshadow="2"
     inkscape:window-width="640"
     inkscape:window-height="480"
     id="namedview3001"
     showgrid="false"
     inkscape:zoom="14.75"
     inkscape:cx="8"
     inkscape:cy="8"
     inkscape:window-x="0"
     inkscape:window-y="0"
     inkscape:window-maximized="0"
     inkscape:current-layer="svg2993" />
  <path
     style="fill:#353535;fill-opacity:1"
     inkscape:connector-curvature="0"
     id="path2999"
     d="M 7,2 C 5.449,2.26033 4.0386,3.1824 3.125,4.4688 2.21151,5.7552 1.8348,7.4099 2.0938,8.9688 2.1732,9.4469 2.308,9.8994 2.5,10.344 2.5431,10.315 2.581,10.278 2.625,10.25 c 10e-8,-0.72638 0.40008,-1.3456 0.90625,-1.7188 0.50617,-0.37318 1.1438,-0.5625 1.8125,-0.5625 0.29324,0 0.5378,0.14388 0.8125,0.21875 0.31215,-0.2977 0.67728,-0.54564 1.0625,-0.75 C 7.0586,7.31343 6.92724,7.19909 6.84375,7.12495 5.66545,6.07845 8.55105,1.73975 6.99995,2.00005 z M 9,8 C 7.8737,8 6.9192,8.51564 6.4062,9.2812 6.11735,9.101 5.7485,8.99995 5.3437,8.99995 c -0.92,0 -1.6875,0.56 -1.6875,1.25 0,0.15496 0.056173,0.30052 0.125,0.4375 -1.0463,0.35 -1.7812,1.144 -1.7812,2.062 0,1.246 1.338,2.25 3,2.25 h 6 c 1.662,0 3,-1.0035 3,-2.25 0,-0.98734 -0.85624,-1.8205 -2.0312,-2.125 0.002,-0.043 0.031,-0.082 0.031,-0.125 0,-1.38 -1.344,-2.5 -3,-2.5 z" />
</svg>
